public/images/three-mask.svg

<svg width="1601" height="855" fill="none" xmlns="http://www.w3.org/2000/svg"><path d="M628.256 616.221c0 128.371-109.867 238.237-305.314 238.237-188.509 0-308.784-104.084-322.662-260.21h146.875c6.939 86.736 74.015 143.405 175.787 143.405 101.771 0 163.065-50.886 163.065-131.84 0-83.268-63.607-123.745-157.283-123.745h-85.58V368.731h83.267c77.485 0 139.936-34.694 139.936-122.588 0-71.702-48.573-128.37-139.936-128.37-97.145 0-153.813 64.763-159.596 148.031H25.723C34.975 122.398 139.06.967 327.568.967c186.195 0 282.184 113.336 282.184 240.55 0 97.146-64.764 166.535-148.031 181.57 99.458 16.191 166.535 91.363 166.535 193.134zm63.399 224.36V668.263h172.318v172.318H691.655zm206.634-412.875C898.289 180.216 1034.76.96 1249.86.96c215.11 0 350.42 179.256 350.42 426.746 0 247.489-135.31 426.746-350.42 426.746-215.1 0-351.571-179.257-351.571-426.746zm154.971 0c0 187.352 64.76 306.47 196.6 306.47 130.69 0 195.45-119.118 195.45-306.47 0-187.352-64.76-306.471-195.45-306.471-131.84 0-196.6 119.119-196.6 306.471z" fill="#fff"/></svg>

<svg width="1601" height="855" viewBox="0 0 1601 855" fill="none" xmlns="http://www.w3.org/2000/svg">
<path d="M628.256 616.221C628.256 744.592 518.389 854.458 322.942 854.458C134.433 854.458 14.1582 750.374 0.280273 594.248H147.155C154.094 680.984 221.17 737.653 322.942 737.653C424.713 737.653 486.007 686.767 486.007 605.813C486.007 522.545 422.4 482.068 328.724 482.068H243.144V368.731H326.411C403.896 368.731 466.347 334.037 466.347 246.143C466.347 174.441 417.774 117.773 326.411 117.773C229.266 117.773 172.598 182.536 166.815 265.804H25.7231C34.9751 122.398 139.059 0.966716 327.568 0.966716C513.763 0.966716 609.752 114.303 609.752 241.517C609.752 338.663 544.988 408.052 461.721 423.087C561.179 439.278 628.256 514.45 628.256 616.221Z" fill="white"/>
<path d="M691.655 840.581V668.263H863.973V840.581H691.655Z" fill="white"/>
<path d="M898.289 427.706C898.289 180.216 1034.76 0.959961 1249.86 0.959961C1464.97 0.959961 1600.28 180.216 1600.28 427.706C1600.28 675.195 1464.97 854.452 1249.86 854.452C1034.76 854.452 898.289 675.195 898.289 427.706ZM1053.26 427.706C1053.26 615.058 1118.02 734.176 1249.86 734.176C1380.55 734.176 1445.31 615.058 1445.31 427.706C1445.31 240.354 1380.55 121.235 1249.86 121.235C1118.02 121.235 1053.26 240.354 1053.26 427.706Z" fill="white"/>
</svg>
